X: 35437
T: Roving Bachelor, The
R: reel
M: 4/4
K: Gmajor
|BEBA BEge|dBge dBGA|BEBA BEge|dBAc BGGA|
BEBA BEge|dBge dBGA|BEBA BEge|dBAc BGef||
gfed eB{c}Bd|gfed eBef|gfed efge|afge dfgf|
gfed eB{c}Bd|gfed eBef|gbag fage|dBge dBGA||

